static/vitrine/images/email.svg

<svg enable-background="new 0 0 60 60" viewBox="0 0 60 60" xmlns="http://www.w3.org/2000/svg"><g fill="#2b4c6f" stroke="#fff" stroke-miterlimit="10"><path d="m30 58c15.9 0 28.8-12.2 28.8-27.3s-12.9-27.3-28.8-27.3-28.8 12.2-28.8 27.3 12.9 27.3 28.8 27.3z"/><path d="m30 33.9 16.6-13.7h-33.2zm-4.5-1.6 4.5 3.5 4.4-3.5 12.2 9.9h-33.2zm-13.2 8.8v-19.9l12.2 10zm35.4 0v-19.9l-12.2 10z"/></g></svg>

<?xml version="1.0" encoding="utf-8"?>
<!-- Generator: Adobe Illustrator 22.1.0, SVG Export Plug-In . SVG Version: 6.00 Build 0)  -->
<svg version="1.1" id="Calque_1" xmlns:sketch="http://www.bohemiancoding.com/sketch/ns"
	 xmlns="http://www.w3.org/2000/svg" xmlns:xlink="http://www.w3.org/1999/xlink" x="0px" y="0px" viewBox="0 0 60 60"
	 style="enable-background:new 0 0 60 60;" xml:space="preserve">
<style type="text/css">
	.st0{fill:#2B4C6F;stroke:#FFFFFF;stroke-miterlimit:10;}
</style>
<title></title>
<g id="flat">
	<g id="mail">
		<path class="st0" d="M30,58c15.9,0,28.8-12.2,28.8-27.3S45.9,3.4,30,3.4S1.2,15.6,1.2,30.7S14.1,58,30,58z"/>
		<path class="st0" d="M30,33.9l16.6-13.7H13.4L30,33.9z M25.5,32.3l4.5,3.5l4.4-3.5l12.2,9.9H13.4L25.5,32.3z M12.3,41.1V21.2
			l12.2,10L12.3,41.1z M47.7,41.1V21.2l-12.2,10L47.7,41.1z"/>
	</g>
</g>
</svg>
